packages/tokens/icons/idea/size32Px.svg

<svg viewBox="0 0 32 32" fill="none" xmlns="http://www.w3.org/2000/svg" width="1em" height="1em"><path d="M15 28.5C15 29.0523 15.4477 29.5 16 29.5C16.5523 29.5 17 29.0523 17 28.5" stroke="currentColor" stroke-linecap="round" stroke-linejoin="round"/><line x1="14.5" y1="26.5" x2="17.5" y2="26.5" stroke="currentColor" stroke-linecap="round"/><path d="M23.5 14.1C23.5 16.7013 22.2109 18.9957 20.2458 20.3658C19.8529 20.6398 19.4987 21.0101 19.2825 21.4824L18.3021 23.6243C18.0578 24.1579 17.5249 24.5 16.9382 24.5H15.0618C14.4751 24.5 13.9422 24.1579 13.6979 23.6243L12.7175 21.4824C12.5013 21.0101 12.1471 20.6398 11.7542 20.3658C9.78906 18.9957 8.5 16.7013 8.5 14.1C8.5 9.89676 11.8637 6.5 16 6.5C20.1363 6.5 23.5 9.89676 23.5 14.1Z" stroke="currentColor"/><path d="M6 13.5L4.5 13.5" stroke="currentColor" stroke-linecap="round"/><path d="M7.5 7.5L6 6" stroke="currentColor" stroke-linecap="round"/><path d="M27.5 13.5L26 13.5" stroke="currentColor" stroke-linecap="round"/><path d="M26 6L24.5 7.5" stroke="currentColor" stroke-linecap="round"/><path d="M16 2L16 4" stroke="currentColor" stroke-linecap="round"/></svg>

<svg xmlns="http://www.w3.org/2000/svg" fill="none" viewBox="0 0 32 32" width="1em" height="1em"><path stroke="currentColor" stroke-linecap="round" stroke-linejoin="round" d="M15 28.5a1 1 0 1 0 2 0"/><path stroke="currentColor" stroke-linecap="round" d="M14.5 26.5h3"/><path stroke="currentColor" d="M23.5 14.1a7.62 7.62 0 0 1-3.254 6.266 2.801 2.801 0 0 0-.963 1.116l-.98 2.142a1.5 1.5 0 0 1-1.365.876h-1.876a1.5 1.5 0 0 1-1.364-.876l-.98-2.142a2.801 2.801 0 0 0-.964-1.116A7.62 7.62 0 0 1 8.5 14.1c0-4.203 3.364-7.6 7.5-7.6s7.5 3.397 7.5 7.6Z"/><path stroke="currentColor" stroke-linecap="round" d="M6 13.5H4.5m3-6L6 6m21.5 7.5H26M26 6l-1.5 1.5M16 2v2"/></svg>
